common/src/main/resources/icons/expui/toolwindow/inspection.svg

<!--
  - The MIT License (MIT)
  -
  - Copyright (c) 2015-2024 Elior "Mallowigi" Boukhobza
  -
  - Permission is hereby granted, free of charge, to any person obtaining a copy
  - of this software and associated documentation files (the "Software"), to deal
  - in the Software without restriction, including without limitation the rights
  - to use, copy, modify, merge, publish, distribute, sublicense, and/or sell
  - copies of the Software, and to permit persons to whom the Software is
  - furnished to do so, subject to the following conditions:
  -
  - The above copyright notice and this permission notice shall be included in all
  - copies or substantial portions of the Software.
  -
  - THE SOFTWARE IS PROVIDED "AS IS", WITHOUT WARRANTY OF ANY KIND, EXPRESS OR
  - IMPLIED, INCLUDING BUT NOT LIMITED TO THE WARRANTIES OF MERCHANTABILITY,
  - FITNESS FOR A PARTICULAR PURPOSE AND NONINFRINGEMENT. IN NO EVENT SHALL THE
  - AUTHORS OR COPYRIGHT HOLDERS BE LIABLE FOR ANY CLAIM, DAMAGES OR OTHER
  - LIABILITY, WHETHER IN AN ACTION OF CONTRACT, TORT OR OTHERWISE, ARISING FROM,
  - OUT OF OR IN CONNECTION WITH THE SOFTWARE OR THE USE OR OTHER DEALINGS IN THE
  - SOFTWARE.
  -->

<svg data-big="true" xmlns="http://www.w3.org/2000/svg" width="16px" height="16px" viewBox="0 0 13 13">
  <path fill="#A1887F" fill-rule="evenodd"
        d="M4.28950814,10.2170616 C3.76180329,9.81106071 3.36036806,9.24902996 3.15423314,8.60000002 L2.9000001,8.60000002 C2.62385772,8.60000002 2.4000001,8.3761424 2.4000001,8.10000002 L2.4000001,7.5 C2.4000001,7.22385763 2.62385772,7 2.9000001,7 L3.00596113,7 C3.01568863,6.83727879 3.03720741,6.67773432 3.06967457,6.52220932 C3.04090061,6.38161107 3.02084121,6.21373692 3.00986573,6 L1.5,6 L1.5,5 L3,5 L3,3.43569091 C3,2.58874812 3.08818433,2.2816262 3.25377607,1.97199657 C3.4193678,1.66236694 3.66236694,1.4193678 3.97199657,1.25377607 C4.2816262,1.08818433 4.58874812,1 5.43569091,1 L7.56430909,1 C8.41125188,1 8.7183738,1.08818433 9.02800343,1.25377607 C9.33763306,1.4193678 9.5806322,1.66236694 9.74622393,1.97199657 C9.91181567,2.2816262 10,2.58874812 10,3.43569091 L10,5 L11.5,5 L11.5,6 L9.99013427,6 C9.97915879,6.21373692 9.95909939,6.38161107 9.93032543,6.52220932 C9.96279259,6.67773432 9.98431137,6.83727879 9.99403898,6.99999992 L10.0999999,7 C10.3761423,7 10.5999999,7.22385763 10.5999999,7.5 L10.5999999,8.10000002 C10.5999999,8.3761424 10.3761423,8.60000002 10.0999999,8.60000002 L9.84576686,8.60000002 C9.63963194,9.24902996 9.23819671,9.81106071 8.71049186,10.2170616 C10.5664554,10.6420122 11,11.5789094 11,12 L2,12 C2,11.5789094 2.43354458,10.6420122 4.28950814,10.2170616 Z"/>
</svg>

<svg xmlns="http://www.w3.org/2000/svg" width="16" height="16" data-big="true" viewBox="0 0 13 13"><path fill="#A1887F" fill-rule="evenodd" d="M4.29 10.217A3.3 3.3 0 0 1 3.154 8.6H2.9a.5.5 0 0 1-.5-.5v-.6a.5.5 0 0 1 .5-.5h.106q.015-.244.064-.478A3.5 3.5 0 0 1 3.01 6H1.5V5H3V3.436c0-.847.088-1.154.254-1.464.165-.31.408-.553.718-.718.31-.166.617-.254 1.464-.254h2.128c.847 0 1.154.088 1.464.254.31.165.553.408.718.718.166.31.254.617.254 1.464V5h1.5v1H9.99a3.5 3.5 0 0 1-.06.522q.05.234.064.478h.106a.5.5 0 0 1 .5.5v.6a.5.5 0 0 1-.5.5h-.254a3.3 3.3 0 0 1-1.136 1.617C10.566 10.642 11 11.58 11 12H2c0-.421.434-1.358 2.29-1.783"/></svg>
